src/assets/cup.svg

<svg width="369" height="267" viewBox="0 0 369 267" fill="none" xmlns="http://www.w3.org/2000/svg">
<path d="M255.835 202.785C198.235 242.785 132.502 218.452 106.835 201.285H106.335C106.002 200.618 105.235 198.885 104.835 197.285C104.564 196.199 102.129 193.825 99.8099 191.785M255.835 202.785C233.335 217.285 172.535 236.985 109.335 199.785M255.835 202.785C200.235 240.385 135.002 220.785 109.335 206.285V199.785M255.835 202.785L255.335 202.285M109.335 199.785L105.835 196.785L101.835 192.285L99.8099 191.785M295.335 196.285L289.835 200.285C287.835 195.085 265.669 199.118 254.835 201.785L255.335 202.285M295.335 196.285C300.669 197.118 310.035 200.485 304.835 207.285C298.502 212.285 278.735 223.185 250.335 226.785C225.169 231.118 163.935 237.185 120.335 226.785C81.3355 219.785 21.4355 202.685 93.8355 190.285L96.8354 189.285M295.335 196.285C285.735 193.485 274.002 188.118 269.335 185.785M96.8354 189.285C97.6391 189.928 98.7114 190.819 99.8099 191.785M96.8354 189.285L88.579 177.785M82.8354 169.785C37.5021 174.118 -37.1646 192.785 26.8354 232.785C63.6688 253.118 170.835 284.685 304.835 248.285C355.669 230.118 422.535 188.885 283.335 169.285M82.8354 169.785C52.8354 119.385 51.6688 59.7851 54.8354 36.285M82.8354 169.785L88.579 177.785M283.335 169.285L295.835 141.785M283.335 169.285L276.335 177.535M255.335 202.285L269.335 185.785M269.335 185.785L276.335 177.535M289.835 196.785L270.335 188.785L262.835 197.785L278.835 194.785L280.835 195.785H282.335L271.335 191.785L269.335 192.785L267.835 194.785L271.335 194.285M295.835 141.785C325.002 138.618 379.435 121.585 363.835 78.7851C359.502 68.9517 343.635 51.9851 314.835 62.7851M295.835 141.785C297.365 139.155 298.82 135.93 300.196 132.285M314.835 62.7851C314.497 65.7757 314.046 69.3376 313.486 73.285M314.835 62.7851L313.486 73.285M300.196 132.285C300.755 130.802 301.302 129.249 301.835 127.638M300.196 132.285C301.447 132.062 302.961 131.763 304.607 131.401M301.835 127.638L324.835 124.285C325.169 122.785 325.235 120.685 322.835 124.285C320.894 127.197 311.566 129.868 304.607 131.401M301.835 127.638C302.197 126.546 302.552 125.427 302.901 124.285M302.901 124.285L304.607 131.401M302.901 124.285C307.027 110.792 310.268 94.103 312.439 80.285M302.901 124.285C311.185 123.999 324.208 121.585 333.835 115.077M312.439 80.285C338.123 74.685 345.738 86.285 346.335 92.785C346.335 98.7967 344.519 103.742 341.568 107.785M312.439 80.285C312.822 77.8516 313.171 75.5072 313.486 73.285M313.486 73.285C318.769 72.285 329.635 70.585 330.835 71.785M313.486 73.285V36.285M341.568 107.785C344.574 110.952 347.463 116.685 334.962 114.285M341.568 107.785C340.741 108.918 339.825 109.98 338.835 110.975M334.962 114.285C336.343 113.275 337.643 112.174 338.835 110.975M334.962 114.285C334.592 114.555 334.216 114.819 333.835 115.077M338.835 110.975C341.169 113.106 343.435 116.91 333.835 115.077M313.486 36.285C287.207 65.885 214.103 70.285 180.835 68.785C152.169 70.4517 86.8354 66.285 54.8354 36.285M313.486 36.285C313.989 33.2774 313.043 29.6007 309.82 25.785M54.8354 36.285C53.603 33.4409 54.2688 29.7231 58.4112 25.785M64.8354 87.285C73.6688 124.785 100.135 200.285 135.335 202.285M309.82 25.785C299.47 13.5313 265.631 -0.15513 180.835 2.28504C101.263 4.57491 68.8333 15.877 58.4112 25.785M309.82 25.785C308.346 27.7004 306.157 29.9133 303.211 32.285M58.4112 25.785C59.5882 27.8957 61.067 29.894 62.8105 31.785M62.8105 31.785C69.6522 26.4517 86.1354 16.285 97.3354 18.285M62.8105 31.785C69.8334 39.4025 81.1506 45.2813 94.3354 49.7661M146.335 10.785C154.335 9.78503 171.735 7.98503 177.335 8.78503M188.835 8.78503C198.835 8.61837 219.035 8.78503 219.835 10.785M94.3354 49.7661C122.54 59.3598 159.291 62.5746 180.835 62.7851C222.604 62.7851 253.223 56.1279 274.335 48.0012M94.3354 49.7661C117.002 40.7499 184.735 27.7742 274.335 48.0012M274.335 48.0012C287.551 42.9142 297.042 37.2513 303.211 32.285M276.335 177.535C290.169 177.618 318.835 179.185 322.835 184.785M88.579 177.785C71.8312 178.118 37.4354 180.885 33.8354 189.285M57.3354 215.285C70.3354 224.118 105.935 241.385 144.335 239.785M230.335 237.285C247.669 235.285 284.335 229.785 292.335 223.785M266.835 17.285C277.586 19.285 299.912 25.085 303.211 32.285M298.835 64.785C299.002 84.4517 292.435 135.385 264.835 181.785M250.335 196.785L258.335 188.285M102.835 196.285L86.3354 200.785C85.8354 201.452 85.2354 202.685 86.8354 202.285C88.4354 201.885 98.8354 199.452 103.835 198.285L102.835 196.285Z" stroke="#AF9283" stroke-width="4"/>
</svg>

<svg width="369" height="267" viewBox="0 0 369 267" fill="none" xmlns="http://www.w3.org/2000/svg">
<path d="M255.835 202.785c-57.6 40-123.333 15.667-149-1.5h-.5c-.333-.667-1.1-2.4-1.5-4-.271-1.086-2.706-3.46-5.025-5.5m156.025 11c-22.5 14.5-83.3 34.2-146.5-3m146.5 3c-55.6 37.6-120.833 18-146.5 3.5v-6.5m146.5 3-.5-.5m-146-2.5-3.5-3-4-4.5-2.025-.5m195.525 4.5-5.5 4c-2-5.2-24.166-1.167-35 1.5l.5.5m40-6c5.334.833 14.7 4.2 9.5 11-6.333 5-26.1 15.9-54.5 19.5-25.166 4.333-86.4 10.4-130 0-39-7-98.9-24.1-26.5-36.5l3-1m198.5 7c-9.6-2.8-21.333-8.167-26-10.5m-172.5 3.5a87 87 0 0 1 2.975 2.5m-2.975-2.5-8.256-11.5m-5.744-8c-45.333 4.333-120 23-56 63 36.834 20.333 144 51.9 278 15.5 50.834-18.167 117.7-59.4-21.5-79m-200.5.5c-30-50.4-31.166-110-28-133.5m28 133.5 5.744 8m194.756-8.5 12.5-27.5m-12.5 27.5-7 8.25m-21 24.75 14-16.5m0 0 7-8.25m13.5 19.25-19.5-8-7.5 9 16-3 2 1h1.5l-11-4-2 1-1.5 2 3.5-.5m24.5-52.5c29.167-3.167 83.6-20.2 68-63-4.333-9.833-20.2-26.8-49-16m-19 79c1.53-2.63 2.985-5.855 4.361-9.5m14.639-69.5a378 378 0 0 1-1.349 10.5m1.349-10.5-1.349 10.5m-13.29 59a121 121 0 0 0 1.639-4.647m-1.639 4.647c1.251-.223 2.765-.522 4.411-.884m-2.772-3.763 23-3.353c.334-1.5.4-3.6-2 0-1.941 2.912-11.269 5.583-18.228 7.116m-2.772-3.763q.543-1.639 1.066-3.353m0 0 1.706 7.116m-1.706-7.116c4.126-13.493 7.367-30.182 9.538-44m-9.538 44c8.284-.286 21.307-2.7 30.934-9.208m-21.396-34.792c25.684-5.6 33.299 6 33.896 12.5 0 6.012-1.816 10.957-4.767 15m-29.129-27.5c.383-2.433.732-4.778 1.047-7m0 0c5.283-1 16.149-2.7 17.349-1.5m-17.349 1.5v-37m28.082 71.5c3.006 3.167 5.895 8.9-6.606 6.5m6.606-6.5a27.6 27.6 0 0 1-2.733 3.19m-3.873 3.31a32.5 32.5 0 0 0 3.873-3.31m-3.873 3.31q-.555.405-1.127.792m5-4.102c2.334 2.131 4.6 5.935-5 4.102m-20.349-78.792c-26.279 29.6-99.383 34-132.651 32.5-28.666 1.667-94-2.5-126-32.5m258.651 0c.503-3.008-.443-6.684-3.666-10.5m-254.985 10.5c-1.232-2.844-.566-6.562 3.576-10.5m6.424 61.5c8.834 37.5 35.3 113 70.5 115m174.485-176.5c-10.35-12.254-44.189-25.94-128.985-23.5-79.572 2.29-112.002 13.592-122.424 23.5m251.409 0c-1.474 1.915-3.663 4.128-6.609 6.5m-244.8-6.5c1.177 2.11 2.656 4.109 4.4 6m0 0c6.841-5.333 23.324-15.5 34.524-13.5m-34.524 13.5c7.022 7.618 18.34 13.496 31.524 17.981m52-38.981c8-1 25.4-2.8 31-2m11.5 0c10-.167 30.2 0 31 2m-125.5 38.981c28.205 9.594 64.956 12.809 86.5 13.02 41.769 0 72.388-6.658 93.5-14.785m-180 1.765c22.667-9.016 90.4-21.992 180-1.765m0 0c13.216-5.087 22.707-10.75 28.876-15.716m-26.876 145.25c13.834.083 42.5 1.65 46.5 7.25m-234.256-7c-16.748.333-51.144 3.1-54.744 11.5m23.5 26c13 8.833 48.6 26.1 87 24.5m86-2.5c17.334-2 54-7.5 62-13.5m-25.5-206.5c10.751 2 33.077 7.8 36.376 15m-4.376 32.5c.167 19.667-6.4 70.6-34 117m-14.5 15 8-8.5m-155.5 8-16.5 4.5c-.5.667-1.1 1.9.5 1.5s12-2.833 17-4z" stroke="#AF9283" stroke-width="4"/></svg>
